src/assets/img/providers-white/xprogaming.svg

<svg width="76" height="30" viewBox="0 0 76 30" fill="none" xmlns="http://www.w3.org/2000/svg">
<path d="M15.8192 13.4375C15.9564 13.5619 16.0506 13.7151 16.1019 13.8971C16.1211 13.9664 16.1128 14.0311 16.0769 14.0914C15.9487 14.3067 15.7936 14.5042 15.6115 14.6837C13.5564 16.6965 11.2134 18.4208 8.58268 19.8567C7.59532 20.3964 6.56007 20.8158 5.52205 21.2364C5.01751 21.4408 4.51219 21.6455 4.01152 21.8644C2.09037 22.7048 0.0422904 24.2183 0.484598 26.6452C1.19037 30.5164 5.80768 30.6914 8.40383 28.8471C9.25383 28.2433 9.86024 27.626 10.2231 26.9952C10.5846 26.3683 10.9513 25.6901 11.3231 24.9606C12.0372 23.5606 12.8532 22.1952 13.7711 20.8644C15.0519 19.008 16.2596 17.6221 17.3942 16.7067C17.4368 16.6725 17.4811 16.6359 17.5268 16.5981C17.964 16.2365 18.5363 15.7632 19.1038 16.174C20.3384 17.0702 21.6025 18.3862 22.8961 20.1221C23.1654 20.4837 23.3788 21.0587 23.5038 21.4971C24.1942 23.899 25.8692 25.4548 28.525 24.8125C30.2096 24.4048 31.3615 22.8914 31.2942 21.174C31.2308 19.5183 29.9731 18.7414 28.5731 18.2894C26.2654 17.5446 24.1891 16.5587 22.3442 15.3317C21.807 14.974 21.3013 14.5587 20.8269 14.0856C20.0199 13.2823 22.3415 11.6697 22.9826 11.2244L22.9865 11.2217C23.0053 11.2087 23.0227 11.1965 23.0384 11.1856C24.9654 9.84136 26.9865 8.5779 29.2269 7.83174C30.7211 7.33559 31.8981 5.99905 31.5654 4.38943C31.0288 1.78174 27.3154 1.13751 25.7577 3.14328C25.5487 3.40995 25.3711 3.70931 25.225 4.04136C24.9365 4.68943 24.5365 5.28174 24.1192 5.83366C23.4987 6.65802 21.9205 8.47341 19.3846 11.2798C18.9904 11.7164 18.3942 12.2067 17.7961 11.7548C17.2974 11.3792 16.8173 10.9228 16.3558 10.3856C14.6423 8.3952 13.0577 5.95866 11.6231 3.58943C10.1865 1.21443 7.90191 -0.554797 5.00575 0.214434C3.14998 0.708664 1.96729 2.12982 1.77883 4.02597C1.67755 5.05033 1.95639 5.89777 2.61537 6.56828C3.24229 7.20418 4.10319 7.70738 5.19806 8.07789C5.73761 8.26003 6.29179 8.42485 6.84818 8.59033C7.85448 8.88962 8.86802 9.19107 9.81537 9.60097C12.0731 10.5779 14.0743 11.8567 15.8192 13.4375Z" fill="white"/>
<path fill-rule="evenodd" clip-rule="evenodd" d="M75.3904 5.64921C75.3045 5.14536 74.9878 4.79023 74.4404 4.58382C74.0711 4.44408 73.8314 4.3742 73.7211 4.3742C70.7724 4.37036 67.8237 4.371 64.875 4.37613C63.9596 4.37869 62.9827 4.55433 61.9442 4.90305L60.4154 5.60113C60.391 5.56904 60.3609 5.54211 60.325 5.52032C56.2 7.50686 53.8769 12.0607 55.6885 16.4415C56.1551 17.5697 56.7981 18.5222 57.6173 19.2992C59.1212 20.8299 61.0731 21.7818 63.1269 22.278C64.0205 22.4947 65.15 22.5972 66.5154 22.5857C68.9667 22.5652 71.3904 22.5607 73.7865 22.5722C74.3442 22.5761 74.8961 22.3242 75.1962 21.8588C75.3256 21.6588 75.3904 21.2883 75.3904 20.7472C75.3904 18.9844 75.3885 17.2395 75.3846 15.5126C75.45 14.28 75.4538 13.428 74.1596 13.103C73.6711 12.9812 73.0295 12.9498 72.2346 13.0088C71.9051 13.0319 71.6051 13.1351 71.3346 13.3184C70.5892 13.8239 70.6293 14.5356 70.6814 15.46L70.6814 15.4613L70.6816 15.4633L70.6817 15.4663C70.6846 15.5177 70.6875 15.5696 70.6904 15.6223C70.6896 15.7111 70.6899 15.8022 70.6902 15.8948C70.6921 16.472 70.6943 17.1054 70.4308 17.5761C70.0756 18.2081 69.4833 18.5459 68.6538 18.5895C67.4846 18.6511 66.241 18.6524 64.9231 18.5934C64.7436 18.5857 64.4269 18.5081 63.9731 18.3607C61.9949 17.6646 60.768 16.3453 60.2923 14.403L60.2058 13.1588C60.5365 11.0101 61.709 9.54469 63.7231 8.76264C64.4821 8.46777 65.0263 8.32034 65.3558 8.32034C68.1327 8.32034 70.9083 8.31713 73.6827 8.31072C74.0276 8.30944 74.3154 8.25431 74.5462 8.14534C75.4611 7.71091 75.4312 6.89065 75.4011 6.06533V6.0651C75.396 5.92602 75.3909 5.78673 75.3904 5.64921Z" fill="white"/>
<path fill-rule="evenodd" clip-rule="evenodd" d="M45.8 4.36996C47.721 4.33726 49.0263 4.31505 50.6596 4.94712C52.225 5.61635 53.275 6.73109 53.8096 8.29135C53.5981 8.39006 53.4019 8.47404 53.2212 8.54327C53.1322 8.57778 53.0535 8.57884 52.9773 8.57986C52.8923 8.58101 52.8105 8.58211 52.7212 8.62981C52.6147 8.68622 52.5019 8.72532 52.3827 8.74712C51.4288 8.93173 50.5173 9.17276 49.6481 9.47019C49.3404 9.57532 49.0109 9.64904 48.6596 9.69135C48.5891 9.69904 48.5468 9.66827 48.5327 9.59904C48.4365 9.1375 48.2481 8.92724 47.9673 8.96827C47.4827 8.53237 46.8045 8.31186 45.9327 8.30673C44.2109 8.29648 42.4705 8.29583 40.7115 8.30481C39.7019 8.31058 38.5519 8.77019 38.5635 9.97019C38.5712 10.5933 38.5712 11.2138 38.5635 11.8317L38.5596 15.826C38.5686 17.5247 38.5679 19.2248 38.5577 20.9261C38.5551 21.3568 38.4776 21.6741 38.325 21.878C37.9878 22.3293 37.5596 22.5632 37.0404 22.5799C36.9703 22.5822 36.8965 22.585 36.8197 22.588C35.6499 22.6334 33.7786 22.7061 33.775 21.0568C33.7724 19.4761 33.7744 17.8902 33.7808 16.2991L33.7904 10.974C33.7699 9.45224 33.7622 7.9016 33.7673 6.32212C33.7699 5.72853 33.8513 5.3125 34.0115 5.07404C34.2564 4.70865 34.6615 4.47724 35.2269 4.37981H45.1769C45.3919 4.3769 45.5991 4.37337 45.7996 4.36996L45.8 4.36996Z" fill="white"/>
<path fill-rule="evenodd" clip-rule="evenodd" d="M53.9962 10.3415C54.0654 9.66073 54.0032 8.97724 53.8096 8.29135C53.5981 8.39006 53.4019 8.47404 53.2212 8.54327C53.1322 8.57778 53.0535 8.57884 52.9773 8.57986C52.8923 8.58101 52.8105 8.58211 52.7212 8.62981C52.6147 8.68622 52.5019 8.72532 52.3827 8.74712C51.4288 8.93173 50.5173 9.17276 49.6481 9.47019C49.3404 9.57532 49.0109 9.64904 48.6596 9.69135C48.5891 9.69904 48.5468 9.66827 48.5327 9.59904C48.4365 9.1375 48.2481 8.92724 47.9673 8.96827C49.0769 10.2529 47.5038 11.2838 46.3154 11.3607C45.809 11.3941 44.8801 11.3998 43.5289 11.378C43.0353 11.3703 42.6218 11.5921 42.2885 12.0434C41.9868 12.4033 41.9958 12.8169 42.005 13.2384C42.007 13.3327 42.0091 13.4275 42.0077 13.5221C42.0038 13.8619 42.0442 14.1311 42.1288 14.3298C42.4 14.9683 43.1769 15.2702 43.8461 15.2837C45.1333 15.3067 46.3442 15.3067 47.4788 15.2837C50.2749 15.2279 53.6595 13.4318 53.9962 10.3415Z" fill="white"/>
</svg>

<svg xmlns="http://www.w3.org/2000/svg" width="76" height="30" fill="none"><path fill="#fff" d="M15.82 13.438a.958.958 0 0 1 .282.46.24.24 0 0 1-.025.193 2.944 2.944 0 0 1-.466.593c-2.055 2.013-4.398 3.737-7.028 5.173-.988.54-2.023.959-3.061 1.38-.504.204-1.01.409-1.51.627-1.922.84-3.97 2.354-3.527 4.781.705 3.871 5.323 4.046 7.919 2.202.85-.604 1.456-1.221 1.82-1.852.36-.627.727-1.305 1.1-2.034.713-1.4 1.53-2.766 2.447-4.097 1.28-1.856 2.489-3.242 3.623-4.157l.133-.109c.437-.361 1.01-.835 1.577-.424 1.234.896 2.498 2.212 3.792 3.948.27.362.483.937.608 1.375.69 2.402 2.365 3.958 5.021 3.316a3.596 3.596 0 0 0 2.77-3.639c-.064-1.656-1.322-2.433-2.722-2.885-2.308-.744-4.384-1.73-6.229-2.957a9.982 9.982 0 0 1-1.517-1.246c-.807-.804 1.514-2.416 2.156-2.862l.003-.002.052-.036c1.927-1.345 3.948-2.608 6.189-3.354 1.494-.496 2.671-1.833 2.338-3.443-.536-2.607-4.25-3.251-5.807-1.246a4.171 4.171 0 0 0-.533.898c-.289.648-.689 1.24-1.106 1.793-.62.824-2.198 2.64-4.734 5.446-.395.436-.99.927-1.589.475a9.239 9.239 0 0 1-1.44-1.37c-1.714-1.99-3.298-4.426-4.733-6.796C10.187 1.214 7.902-.555 5.006.214 3.15.71 1.967 2.13 1.779 4.026c-.101 1.024.177 1.872.836 2.542.627.636 1.488 1.14 2.583 1.51.54.182 1.094.347 1.65.512 1.006.3 2.02.601 2.967 1.011 2.258.977 4.26 2.256 6.004 3.836Z"/><path fill="#fff" fill-rule="evenodd" d="M75.39 5.65c-.085-.505-.402-.86-.95-1.066-.369-.14-.609-.21-.719-.21-2.949-.004-5.897-.003-8.846.002-.915.003-1.892.178-2.93.527l-1.53.698a.322.322 0 0 0-.09-.08c-4.125 1.986-6.448 6.54-4.637 10.92.467 1.129 1.11 2.081 1.93 2.858 1.503 1.53 3.455 2.483 5.509 2.979.893.217 2.023.32 3.388.308 2.452-.02 4.875-.025 7.272-.014.557.004 1.11-.248 1.41-.713.129-.2.193-.57.193-1.112 0-1.763-.002-3.508-.005-5.234.065-1.233.069-2.085-1.225-2.41-.489-.122-1.13-.153-1.925-.094-.33.023-.63.126-.9.31-.746.505-.706 1.217-.654 2.141v.006l.01.156v.273c.001.577.003 1.21-.26 1.681-.355.632-.948.97-1.777 1.014-1.17.061-2.413.062-3.73.003-.18-.007-.497-.085-.95-.232-1.98-.696-3.206-2.016-3.682-3.958l-.086-1.244c.33-2.149 1.503-3.614 3.517-4.396.76-.295 1.303-.443 1.633-.443 2.777 0 5.552-.003 8.327-.01.345 0 .632-.056.863-.165.915-.434.885-1.254.855-2.08-.005-.139-.01-.278-.01-.416ZM45.8 4.37c1.921-.033 3.226-.055 4.86.577 1.565.67 2.615 1.784 3.15 3.344a9.1 9.1 0 0 1-.589.252.653.653 0 0 1-.244.037c-.085.001-.166.002-.256.05-.106.056-.22.095-.338.117-.954.185-1.866.426-2.735.723a4.84 4.84 0 0 1-.988.221c-.07.008-.113-.023-.127-.092-.096-.462-.285-.672-.566-.63-.484-.437-1.163-.657-2.034-.662-1.722-.01-3.462-.011-5.221-.002-1.01.006-2.16.465-2.149 1.665.008.623.008 1.244 0 1.862l-.003 3.994c.009 1.699.008 3.399-.002 5.1-.003.43-.08.748-.233.952-.337.451-.765.685-1.285.702l-.22.008c-1.17.045-3.041.118-3.045-1.531-.003-1.58 0-3.167.006-4.758l.01-5.325c-.021-1.522-.029-3.072-.024-4.652.003-.593.084-1.01.244-1.248.245-.365.65-.597 1.216-.694h9.95l.623-.01Z" clip-rule="evenodd"/><path fill="#fff" fill-rule="evenodd" d="M53.996 10.341c.07-.68.007-1.364-.186-2.05a9.1 9.1 0 0 1-.589.252.653.653 0 0 1-.244.037c-.085.001-.166.002-.256.05-.106.056-.22.095-.338.117-.954.185-1.866.426-2.735.723a4.84 4.84 0 0 1-.988.221c-.07.008-.113-.023-.127-.092-.096-.462-.285-.672-.566-.63 1.11 1.284-.463 2.315-1.652 2.392-.506.033-1.435.039-2.786.017-.494-.008-.907.214-1.24.665-.302.36-.293.774-.284 1.195.002.095.004.19.003.284-.004.34.036.61.12.808.272.638 1.049.94 1.718.954a95.54 95.54 0 0 0 3.633 0c2.796-.056 6.18-1.852 6.517-4.943Z" clip-rule="evenodd"/></svg>
